X:1
T:Title
L:1/8
M:6/8
K:C
V:1 treble nm="Grand Piano"
V:1
 z3[Q:1/4=140] A,2 B, | C2 E A2 E | F3- FGF | E6- | E3 E2 ^G | B2 ^G E2 _E | D6 | C6- | %8
 C3[K:bass] A,2 B, | C2 C B,2 A, | D6- | D6- | D3 D2 _E | E2 E E2 E | c3- c2 B | A6- | A3 A2 B | %17
 c2 c B2 A | c3- c2 B | A6- | A3 A2 B | c2 c B2 A | A3- A2 G | F6- | F3 D2 E | F2 F E2 D | %26
 ^G3- G2 A | B6- | B3 d2 c | B2 A ^G2 A | B6 | B6- | B3 A2 B | c2 c B2 A | c3- c2 B | A6- | %36
 A3 A2 B | c2 c B2 A | A3- A2 G | F6- | F3 D2 E | F2 F E2 D | ^G3- G2 A | B6- | B3 E2 E | %45
 ^G2 G B2 A | c3- c2 B | A6- | A3 z3 |] %49

